priv/static/svgs/icons_new/sport-futsal.svg

<svg width="32" height="32" viewBox="0 0 32 32" fill="none" xmlns="http://www.w3.org/2000/svg">
<path d="M7.19948 25C7.19948 25 19.6558 25 27 25M12.3287 11.952C12.3287 11.952 11.3777 14.1024 11.2328 15.4672C11.2328 15.4672 12.5563 17.2451 13.7762 18.2996L17.4756 17.4932C17.4756 17.4932 18.3853 15.9011 18.5326 13.946M12.3287 11.952C14.3345 11.2078 16.0702 11.1251 16.0702 11.1251M12.3287 11.952C11.24 10.8425 9.83388 10.3877 9.83388 10.3877M18.5326 13.946C18.5326 13.946 17.559 12.1588 16.0702 11.1251M18.5326 13.946L21.0231 13.3062M16.0702 11.1251L17.0843 8.85067M21.0231 13.3062C21.0231 13.3062 21.0128 11.3318 20.3202 10.2257C20.3202 10.2257 19.7295 9.28497 17.0843 8.85067M21.0231 13.3062C21.0231 13.3062 22.1591 14.2855 22.4326 16.2873C22.4326 16.2873 21.9225 19.9538 18.7521 20.422M17.0843 8.85067C16.1883 7.36871 14.4927 7.01337 14.4927 7.01337M11.397 7.38239C11.397 7.38239 10.1786 8.81616 9.83388 10.3877M9.83388 10.3877C9.83388 10.3877 7.80943 11.4527 7.2029 12.8436C7.2029 12.8436 7.10467 14.3191 7.95928 15.9984L11.2328 15.4656M7.95927 16C7.95927 16 7.03565 17.638 7.29772 19.1129C7.29772 19.1129 8.09699 21.2219 9.72259 22.0075M9.72259 22.0075C9.72259 22.0075 11.2664 22.1041 12.9483 21.47M9.72259 22.0075C9.72259 22.0075 9.47482 22.7977 9.63492 23.8727M12.9483 21.47C12.9483 21.47 13.4308 19.0302 13.7752 18.299M12.9483 21.47C12.9483 21.47 14.8512 22.7244 15.9542 22.8067M5.66404 12.6008C5.66404 12.6008 6.21927 12.5517 7.19948 12.6758M5.55679 19.1231L7.25109 19.0065M15.9542 22.8067C15.9542 22.8067 18.1182 21.8694 18.7521 20.422M15.9542 22.8067C15.9542 22.8067 15.9955 24.193 15.8507 24.8094M18.7521 20.422C18.7521 20.422 18.0492 18.2856 17.4775 17.4929M20.9009 19.3659C20.9009 19.3659 21.3673 20.1552 21.1067 21.5225M23 16C23 20.9706 18.9706 25 14 25C9.02944 25 5 20.9706 5 16C5 11.0294 9.02944 7 14 7C18.9706 7 23 11.0294 23 16Z" stroke="black" stroke-linecap="round"/>
</svg>

<svg width="32" height="32" viewBox="0 0 32 32" fill="none" xmlns="http://www.w3.org/2000/svg">
  <symbol id="item" viewBox="0 0 32 32" stroke-width="1" fill="none">
    <path d="M7.2 25H27M12.329 11.952s-.951 2.15-1.096 3.515c0 0 1.323 1.778 2.543 2.833l3.7-.807s.91-1.592 1.057-3.547m-6.204-1.994c2.005-.744 3.741-.827 3.741-.827m-3.741.827c-1.089-1.11-2.495-1.564-2.495-1.564m8.699 3.558s-.974-1.787-2.463-2.82m2.463 2.82 2.49-.64m-4.953-2.18 1.014-2.275m3.94 4.455s-.011-1.974-.704-3.08c0 0-.59-.941-3.236-1.375m3.94 4.455s1.135.98 1.409 2.981c0 0-.51 3.667-3.68 4.135M17.083 8.851c-.896-1.482-2.591-1.838-2.591-1.838m-3.096.37s-1.218 1.433-1.563 3.005m0 0s-2.025 1.065-2.631 2.456c0 0-.098 1.475.756 3.154l3.274-.532M7.959 16s-.923 1.638-.661 3.113c0 0 .799 2.109 2.425 2.895m0 0s1.543.096 3.225-.538m-3.225.538s-.248.79-.088 1.865m3.313-2.403s.483-2.44.827-3.171m-.827 3.171s1.903 1.254 3.006 1.337M5.664 12.6s.555-.05 1.535.075m-1.642 6.447 1.694-.117m8.703 3.8s2.164-.937 2.798-2.384m-2.798 2.385s.041 1.386-.103 2.002m2.901-4.387s-.703-2.136-1.274-2.93m3.423 1.874s.466.79.206 2.157M23 16a9 9 0 1 1-18 0 9 9 0 0 1 18 0Z" stroke="currentColor" stroke-linecap="round"/>
  </symbol>
</svg>
